public/img/icons/i-ico.svg

<svg width="18" height="18" viewBox="0 0 18 18" fill="none" xmlns="http://www.w3.org/2000/svg">
<path fill-rule="evenodd" clip-rule="evenodd" d="M9.5957 6.57031L7.8957 6.57031L7.8957 4.87031L9.5957 4.87031L9.5957 6.57031ZM9.5957 13.3711L7.8957 13.3711L7.8957 8.27109L9.5957 8.27109L9.5957 13.3711ZM8.75264 17.6211C13.4446 17.6211 17.2441 13.8131 17.2441 9.12109C17.2441 4.42909 13.4446 0.621093 8.75264 0.621093C4.05214 0.621093 0.244142 4.42909 0.244141 9.12109C0.244141 13.8131 4.05214 17.6211 8.75264 17.6211ZM8.74414 2.32109C12.5011 2.32109 15.5441 5.36409 15.5441 9.12109C15.5441 12.8781 12.5011 15.9211 8.74414 15.9211C4.98714 15.9211 1.94414 12.8781 1.94414 9.12109C1.94414 5.36409 4.98714 2.32109 8.74414 2.32109Z" fill="#7C808A"/>
</svg>

<svg width="18" height="18" fill="none" xmlns="http://www.w3.org/2000/svg"><path fill-rule="evenodd" clip-rule="evenodd" d="M9.596 6.57h-1.7v-1.7h1.7v1.7zm0 6.801h-1.7v-5.1h1.7v5.1zm-.843 4.25c4.692 0 8.491-3.808 8.491-8.5s-3.8-8.5-8.491-8.5c-4.7 0-8.509 3.808-8.509 8.5s3.808 8.5 8.509 8.5zm-.009-15.3c3.757 0 6.8 3.043 6.8 6.8 0 3.757-3.043 6.8-6.8 6.8a6.798 6.798 0 0 1-6.8-6.8c0-3.757 3.043-6.8 6.8-6.8z" fill="#7C808A"/></svg>
